X: 20096
M: 6/8
L: 1/8
K: Gmix
"^>"B3 "^>"B3 | B>AB d2c | "^>"A3 "^>"A3 | A>^GA B3 |\
"^>"B3 "^>"B3 | B>AB d2c | A>^GA dcA | G2z GBd |
"^>"e3 "^>"d3 | "^>"c3 "^>"B3 | {B}A^GA dcA | G2z GBd |\
"^>"e3 "^>"d3 | "^>"c3 "^>"B3 | {B}A^GA dcA | G2D G2 |]


